src/assets/icons/letters,simple,serif-g.svg

<svg width="48" height="48" viewBox="0 0 48 48" fill="none" xmlns="http://www.w3.org/2000/svg">
<rect opacity="0.2" x="5" y="5" width="38" height="38" rx="4" fill="black"/>
<path d="M24.0004 36.3C22.2004 36.3 20.5704 36.04 19.1104 35.52C17.6704 34.98 16.4404 34.22 15.4204 33.24C14.4204 32.24 13.6404 31.04 13.0804 29.64C12.5404 28.22 12.2704 26.63 12.2704 24.87C12.2704 23.05 12.5604 21.39 13.1404 19.89C13.7404 18.37 14.5704 17.07 15.6304 15.99C16.6904 14.91 17.9604 14.08 19.4404 13.5C20.9204 12.9 22.5604 12.6 24.3604 12.6C25.6004 12.6 26.7804 12.77 27.9004 13.11C29.0204 13.45 30.2304 14 31.5304 14.76L32.1004 12.9H33.1804V20.49H31.6804C31.2804 18.61 30.4704 17.15 29.2504 16.11C28.0504 15.07 26.5404 14.55 24.7204 14.55C22.4204 14.55 20.6304 15.44 19.3504 17.22C18.0904 18.98 17.4604 21.45 17.4604 24.63C17.4604 27.75 18.0804 30.14 19.3204 31.8C20.5604 33.46 22.3604 34.29 24.7204 34.29C26.4204 34.29 27.7404 33.86 28.6804 33C29.6404 32.12 30.1204 30.91 30.1204 29.37C30.1204 28.45 29.8804 27.78 29.4004 27.36C28.9204 26.92 28.1104 26.65 26.9704 26.55V25.35H36.6904V26.55C35.7104 26.55 35.0304 26.77 34.6504 27.21C34.2704 27.63 34.0804 28.4 34.0804 29.52V33.51C33.6404 33.51 33.2704 33.53 32.9704 33.57C32.6704 33.59 32.3704 33.65 32.0704 33.75C31.7904 33.83 31.4704 33.97 31.1104 34.17C30.7504 34.37 30.3004 34.63 29.7604 34.95C28.2204 35.85 26.3004 36.3 24.0004 36.3Z" fill="black"/>
</svg>

<svg xmlns="http://www.w3.org/2000/svg" width="48" height="48" fill="none" viewBox="0 0 48 48">
  <rect width="38" height="38" x="5" y="5" fill="#000" opacity=".2" rx="4"/>
  <path fill="#000" d="M24 36.3c-1.8 0-3.43-.26-4.89-.78-1.44-.54-2.67-1.3-3.69-2.28-1-1-1.78-2.2-2.34-3.6-.54-1.42-.81-3.01-.81-4.77 0-1.82.29-3.48.87-4.98.6-1.52 1.43-2.82 2.49-3.9 1.06-1.08 2.33-1.91 3.81-2.49 1.48-.6 3.12-.9 4.92-.9 1.24 0 2.42.17 3.54.51 1.12.34 2.33.89 3.63 1.65l.57-1.86h1.08v7.59h-1.5c-.4-1.88-1.21-3.34-2.43-4.38-1.2-1.04-2.71-1.56-4.53-1.56-2.3 0-4.09.89-5.37 2.67-1.26 1.76-1.89 4.23-1.89 7.41 0 3.12.62 5.51 1.86 7.17 1.24 1.66 3.04 2.49 5.4 2.49 1.7 0 3.02-.43 3.96-1.29.96-.88 1.44-2.09 1.44-3.63 0-.92-.24-1.59-.72-2.01-.48-.44-1.29-.71-2.43-.81v-1.2h9.72v1.2c-.98 0-1.66.22-2.04.66-.38.42-.57 1.19-.57 2.31v3.99c-.44 0-.81.02-1.11.06-.3.02-.6.08-.9.18-.28.08-.6.22-.96.42-.36.2-.81.46-1.35.78-1.54.9-3.46 1.35-5.76 1.35z"/>
</svg>
